src/Resource_Files/fluent/document-new-epub2.svg

<svg clip-rule="evenodd" fill-rule="evenodd" stroke-linejoin="round" stroke-miterlimit="2" viewBox="0 0 16 16" xmlns="http://www.w3.org/2000/svg"><g fill="#1abc9c" fill-rule="nonzero"><path d="m16 8.003-4.5-.003c-.828 0-1.5-.672-1.5-1.5v-3.5h-4c-.552 0-1 .448-1 1v12c0 .552.448 1 1 1l3 .002v1l-3-.002c-1.105 0-2-.895-2-2v-12c0-1.105.895-2 2-2h4.586c.141 0 .281.02.414.058.242.07.465.2.646.381l3.915 3.915c.181.181.311.404.381.646l.001.005c.005.017.01.034.014.052.028.116.043.236.043.357zm-1.207-1.003-3.793-3.793v3.293c0 .276.224.5.5.5z" transform="translate(-2 -2)"/><path d="m7.586 13c-.613 0-1.093.555-1.093 1.136 0 .277-.224.5-.5.5s-.5-.223-.5-.5c0-1.054.852-2.136 2.093-2.136.73 0 1.429.343 1.817.944.404.624.423 1.442-.057 2.263-.244.417-.58.735-.913 1-.167.133-.34.256-.504.373-.023.017-.047.033-.07.05-.141.1-.274.194-.403.291-.439.333-.757.648-.891 1.079h2.595c.277 0 .5.224.5.5s-.223.5-.5.5h-3.152-.015c-.276 0-.5-.224-.5-.5 0-1.195.691-1.87 1.36-2.376.142-.107.289-.212.429-.311.023-.016.046-.032.068-.048.163-.116.316-.227.461-.341.289-.23.517-.457.671-.722.318-.542.252-.952.082-1.214-.185-.286-.549-.488-.978-.488z" transform="matrix(1.28244 0 0 1.28244 1.55274 -8.39762)"/></g></svg>

<?xml version="1.0" encoding="UTF-8" standalone="no"?>
<!DOCTYPE svg PUBLIC "-//W3C//DTD SVG 1.1//EN" "http://www.w3.org/Graphics/SVG/1.1/DTD/svg11.dtd">
<svg width="100%" height="100%" viewBox="0 0 16 16" version="1.1" xmlns="http://www.w3.org/2000/svg" xmlns:xlink="http://www.w3.org/1999/xlink" xml:space="preserve" xmlns:serif="http://www.serif.com/" style="fill-rule:evenodd;clip-rule:evenodd;stroke-linejoin:round;stroke-miterlimit:2;">
    <g transform="matrix(1,0,0,1,-2,-2)">
        <path d="M16,8.003L11.5,8C10.672,8 10,7.328 10,6.5L10,3L6,3C5.448,3 5,3.448 5,4L5,16C5,16.552 5.448,17 6,17L9,17.002L9,18.002L6,18C4.895,18 4,17.105 4,16L4,4C4,2.895 4.895,2 6,2L10.586,2C10.727,2 10.867,2.02 11,2.058C11.242,2.128 11.465,2.258 11.646,2.439L15.561,6.354C15.742,6.535 15.872,6.758 15.942,7L15.943,7.005C15.948,7.022 15.953,7.039 15.957,7.057C15.985,7.173 16,7.293 16,7.414L16,8.003ZM14.793,7L11,3.207L11,6.5C11,6.776 11.224,7 11.5,7L14.793,7Z" style="fill:rgb(26,188,156);fill-rule:nonzero;"/>
    </g>
    <g transform="matrix(1.28244,0,0,1.28244,1.55274,-8.39762)">
        <path d="M7.586,13C6.973,13 6.493,13.555 6.493,14.136C6.493,14.413 6.269,14.636 5.993,14.636C5.717,14.636 5.493,14.413 5.493,14.136C5.493,13.082 6.345,12 7.586,12C8.316,12 9.015,12.343 9.403,12.944C9.807,13.568 9.826,14.386 9.346,15.207C9.102,15.624 8.766,15.942 8.433,16.207C8.266,16.34 8.093,16.463 7.929,16.58C7.906,16.597 7.882,16.613 7.859,16.63C7.718,16.73 7.585,16.824 7.456,16.921C7.017,17.254 6.699,17.569 6.565,18L9.16,18C9.437,18 9.66,18.224 9.66,18.5C9.66,18.776 9.437,19 9.16,19L6.008,19L5.993,19C5.717,19 5.493,18.776 5.493,18.5C5.493,17.305 6.184,16.63 6.853,16.124C6.995,16.017 7.142,15.912 7.282,15.813C7.305,15.797 7.328,15.781 7.35,15.765C7.513,15.649 7.666,15.538 7.811,15.424C8.1,15.194 8.328,14.967 8.482,14.702C8.8,14.16 8.734,13.75 8.564,13.488C8.379,13.202 8.015,13 7.586,13Z" style="fill:rgb(26,188,156);fill-rule:nonzero;"/>
    </g>
</svg>
